X: 43614
T: Yr Olchfa
R: jig
M: 6/8
K: Eminor
BA|:G2E B,EG|B,EG BAG|AFE DEF|DEF AGF|
GFG B,EG|B,EG BAG|AFE DEF|1 GED EBA:|2 GED E2||
A|:BAB e3|def gfe|dBA G2A|Bdd dBA|
BAB ede|def edB|AFE DEF|1 GFG EFG:|2 GED E||

